icon/indicator-rectangle-horizontal.svg

<svg xmlns="http://www.w3.org/2000/svg" width="11" height="21" fill="none"><path fill="#fff" fill-rule="evenodd" d="M0 0v20h1V1h9V0Z" clip-rule="evenodd" style="fill:#525252;fill-opacity:1"/><path fill="#C0C7C8" d="M1 1h8v18H1z" style="fill:#363636;fill-opacity:1"/><path fill="#87888F" fill-rule="evenodd" d="M9 1h1v19H1v-1h8Z" clip-rule="evenodd" style="fill:#2b2b2b;fill-opacity:1"/><path fill="#000" fill-rule="evenodd" d="M10 0h1v21H0v-1h10Z" clip-rule="evenodd" style="fill:#191919;fill-opacity:1"/></svg>

<?xml version="1.0" encoding="UTF-8" standalone="no"?>
<svg
   width="11"
   height="21"
   viewBox="0 0 11 21"
   fill="none"
   version="1.1"
   id="svg3"
   sodipodi:docname="indicator-rectangle-horizontal.svg"
   inkscape:version="1.4.2 (ebf0e940d0, 2025-05-08)"
   xmlns:inkscape="http://www.inkscape.org/namespaces/inkscape"
   xmlns:sodipodi="http://sodipodi.sourceforge.net/DTD/sodipodi-0.dtd"
   xmlns="http://www.w3.org/2000/svg"
   xmlns:svg="http://www.w3.org/2000/svg">
  <defs
     id="defs3" />
  <sodipodi:namedview
     id="namedview3"
     pagecolor="#ffffff"
     bordercolor="#000000"
     borderopacity="0.25"
     inkscape:showpageshadow="2"
     inkscape:pageopacity="0.0"
     inkscape:pagecheckerboard="0"
     inkscape:deskcolor="#d1d1d1"
     inkscape:zoom="38.095238"
     inkscape:cx="5.5125"
     inkscape:cy="10.5"
     inkscape:window-width="1076"
     inkscape:window-height="991"
     inkscape:window-x="26"
     inkscape:window-y="23"
     inkscape:window-maximized="0"
     inkscape:current-layer="svg3" />
  <path
     fill-rule="evenodd"
     clip-rule="evenodd"
     d="M0 0V20H1V1H10V0Z"
     fill="white"
     id="path1"
     style="fill:#525252;fill-opacity:1" />
  <rect
     x="1"
     y="1"
     width="8"
     height="18"
     fill="#C0C7C8"
     id="rect1"
     style="fill:#363636;fill-opacity:1" />
  <path
     fill-rule="evenodd"
     clip-rule="evenodd"
     d="M9 1H10V20H1V19H9Z"
     fill="#87888F"
     id="path2"
     style="fill:#2b2b2b;fill-opacity:1" />
  <path
     fill-rule="evenodd"
     clip-rule="evenodd"
     d="M10 0H11V21H0V20H10Z"
     fill="black"
     id="path3"
     style="fill:#191919;fill-opacity:1" />
</svg>
